images/github.svg

<svg width="20" height="20" viewBox="0 0 20 20" fill="none" xmlns="http://www.w3.org/2000/svg">
<path d="M10 0C4.50394 0 0 4.543 0 10.0391C0 15.5032 4.46289 20 10 20C15.5302 20 20 15.5099 20 10.0391C20 4.543 15.4961 0 10 0ZM11.7578 18.6523C11.1954 18.7695 10.5977 18.8281 10 18.8281C9.40231 18.8281 8.80463 18.7695 8.24219 18.6523V15.9102C8.24219 15.2539 8.41797 15.0195 8.65234 14.7031C8.77167 14.5667 8.84369 14.4443 9.37881 13.6368L8.47656 13.4961C6.15616 13.1563 5.24216 11.9492 4.87885 11.0117C4.4101 9.75784 4.65622 8.18741 5.50003 7.19147C5.62897 7.03903 5.73441 6.78116 5.64072 6.51169C5.46478 5.9726 5.48828 5.11719 5.60547 4.78897C6.22681 4.87778 6.86569 5.32288 7.39853 5.64453C7.64404 5.78781 7.77283 5.74997 7.89062 5.76172C8.31879 5.67261 8.98666 5.457 10.0117 5.457C10.6445 5.457 11.3126 5.55069 11.9688 5.73822C12.0862 5.73547 12.2748 5.83527 12.6016 5.64453C13.1586 5.30518 13.7758 4.87534 14.3945 4.78897C14.5117 5.11719 14.5352 5.9726 14.3594 6.51169C14.2656 6.78116 14.371 7.03903 14.5001 7.19147C15.3438 8.18756 15.5899 9.75784 15.1212 11.0117C14.7578 11.9492 13.8438 13.1563 11.5234 13.4961L10.6212 13.6368C11.1743 14.4714 11.2326 14.5715 11.3478 14.7031C11.582 15.0195 11.7578 15.2539 11.7578 15.9102V18.6523ZM12.9297 18.3125V15.9102C12.9297 15.2422 12.789 14.7969 12.6015 14.4687C14.3828 13.9883 15.6485 12.9335 16.2109 11.4218C16.8086 9.82819 16.5392 7.92969 15.5429 6.61713C15.7188 5.83206 15.7188 4.57809 15.2969 3.99216C15.1094 3.73444 14.8515 3.59375 14.5235 3.59375C14.5117 3.59375 14.5117 3.59375 14.5117 3.59375C13.6031 3.64288 12.8879 4.10049 12.1211 4.56635C11.418 4.37881 10.7031 4.28513 9.98825 4.28513C9.26178 4.28513 8.53516 4.39056 7.89078 4.56635C7.08359 4.07959 6.37527 3.64166 5.44144 3.59375C5.14847 3.59375 4.89059 3.73444 4.70306 3.99216C4.28131 4.57809 4.28131 5.83206 4.45709 6.61713C3.46085 7.92969 3.19138 9.83978 3.78906 11.4218C4.3515 12.9335 5.61722 13.9883 7.39853 14.4687C7.25311 14.7231 7.13806 15.0513 7.09274 15.4955C6.73294 15.6195 6.4209 15.6599 6.13068 15.5746C5.82458 15.4842 5.58609 15.2798 5.37888 14.9313C4.91348 14.1495 4.12079 13.5112 3.21823 13.5942L3.32123 14.7615C3.73917 14.7232 4.15512 15.1654 4.37119 15.5299C4.72763 16.1302 5.20782 16.5239 5.7988 16.6985C6.23749 16.8277 6.63849 16.8246 7.07031 16.7325V18.3125C3.66013 17.1172 1.17188 13.8594 1.17188 10.0391C1.17188 5.18753 5.14847 1.17188 10 1.17188C14.8515 1.17188 18.8281 5.18753 18.8281 10.0391C18.8281 13.8594 16.3399 17.1172 12.9297 18.3125Z" fill="white"/>
</svg>

<svg width="20" height="20" fill="none" xmlns="http://www.w3.org/2000/svg"><path d="M10 0C4.504 0 0 4.543 0 10.04 0 15.502 4.463 20 10 20c5.53 0 10-4.49 10-9.96C20 4.542 15.496 0 10 0zm1.758 18.652a8.681 8.681 0 01-1.758.176 8.681 8.681 0 01-1.758-.176V15.91c0-.656.176-.89.41-1.207.12-.136.192-.259.727-1.066l-.902-.14c-2.32-.34-3.235-1.548-3.598-2.485-.469-1.254-.223-2.825.621-3.82a.707.707 0 00.14-.68c-.175-.54-.152-1.395-.035-1.723.622.089 1.26.534 1.794.856.245.143.374.105.492.117.428-.09 1.096-.305 2.12-.305.634 0 1.302.094 1.958.281.117-.003.306.097.633-.093.557-.34 1.174-.77 1.793-.856.117.328.14 1.184-.036 1.723a.706.706 0 00.141.68c.844.996 1.09 2.566.621 3.82-.363.937-1.277 2.144-3.598 2.484l-.902.14c.553.835.612.936.727 1.067.234.317.41.55.41 1.207v2.742zm1.172-.34V15.91c0-.668-.141-1.113-.329-1.441 1.782-.48 3.047-1.535 3.61-3.047.598-1.594.328-3.492-.668-4.805.176-.785.176-2.039-.246-2.625a.915.915 0 00-.774-.398h-.011c-.909.049-1.624.506-2.39.972a8.095 8.095 0 00-4.23 0c-.808-.486-1.517-.924-2.45-.972-.294 0-.551.14-.739.398-.422.586-.422 1.84-.246 2.625-.996 1.313-1.266 3.223-.668 4.805.562 1.511 1.828 2.566 3.61 3.047-.146.254-.26.582-.306 1.027-.36.123-.672.164-.962.079-.306-.09-.545-.295-.752-.644-.466-.781-1.258-1.42-2.16-1.337l.102 1.168c.418-.039.834.403 1.05.768.357.6.837.994 1.428 1.168.438.13.84.127 1.271.035v1.58c-3.41-1.196-5.898-4.454-5.898-8.274 0-4.851 3.976-8.867 8.828-8.867 4.851 0 8.828 4.016 8.828 8.867 0 3.82-2.488 7.078-5.898 8.274z" fill="#fff"/></svg>
